X:1
T:The Whispers of Jesus
T:The Whispers of Jesus
T:Edmund Simon Lorenz
T:James Rowe, 1908
T:Public Domain Courtesy of the Cyber Hymnal™
T:Public Domain Courtesy of the Cyber Hymnal™
C:Edmund Simon Lorenz
Z:Public Domain
Z:Courtesy of the Cyber Hymnal™
%%score ( 1 2 ) ( 3 4 )
L:1/8
Q:1/4=98
M:4/4
K:Bb
V:1 treble 
V:2 treble 
V:3 bass 
V:4 bass 
V:1
 [DF]>[DF] [^C=E]>[DF] [DG]>[DA] [DB]>[DG] | [EB]2 [EA]2 [EA]2 z2 | %2
w: 1.~When the storm is rag- ing and the|heart is sad,|
w: 2.~When be- neath a bur- den you are|bend- ing low,|
w: 3.~When the night seems end- less, when for|cour- age pressed,|
 [Ec]>[Ec] [Ec]>[EB] [EA]2 [EG]>[EA] | [DG]4 [DF]2 z2 | [DF]>[DF] [^C=E]>[DF] [DG]>[DA] [DB]>[DG] | %5
w: List- en for the whis- pers of|Je- sus;|Sure- ly you will hear them, and they’ll|
w: List- en for the whis- pers of|Je- sus;|When your friends for- sake you and the|
w: List- en for the whis- pers of|Je- sus;|When the soul is wea- ry and you|
 [EB]2 [EA]2 [EA]2 z2 | [Ge]>[Ge] [Ge]>[Ge] [Fd]2 [DB]>[Fd] | [Ec]4 [DB]2 z2 || %8
w: make you glad,|List- en for the whis- pers of|Je- sus.|
w: sad tears flow,|List- en for the whis- pers of|Je- sus.|
w: sigh for rest,|List- en for the whis- pers of|Je- sus.|
"^Refrain" [B,D] F3- F4 | [EG] B3- B4 | [EA]>[EA] [EA]>[EA] [EG]2 [EA]>[EG] | [DG]4 [DF]2 z2 | %12
w: ||||
w: List- en! *|List- en! *|List- en for the whis- pers of|Je- sus!|
w: ||||
 [Fd]>[Fd] [Fd]>[Fd] [DB]>[DB] [_Ac]>[Ad] | .[Ge]2 .[Ge]2 .[Ge]2 z2 | %14
w: ||
w: Sure- ly you will hear them, and they’ll|make you glad,|
w: ||
 [Fd]>[Fd] [Fd]>[DB] [DF]2 [DB]>[Fd] | [Ec]4 [DB]2 z2 |] %16
w: ||
w: List- en for the whis- pers of|Je- sus!|
w: ||
V:2
 x8 | x8 | x8 | x8 | x8 | x8 | x8 | x8 || x (DD>D D2 D2) | x (GG>G G2 G2) | x8 | x8 | x8 | x8 | %14
 x8 | x8 |] %16
V:3
 [B,,B,]>[B,,B,] [B,,B,]>[B,,B,] [B,,B,]>[B,,A,] [B,,G,]>[B,,G,] | [C,F,]2 [C,F,]2 F,2 z2 | %2
w: ~ ~ ~ ~ ~ ~ ~ ~|~ ~ ~|
 [F,A,]>[F,A,] [F,A,]>[F,B,] [F,C]2 [F,B,]>[F,C] | [B,,B,]4 [B,,B,]2 z2 | %4
w: ~ ~ ~ ~ ~ ~ ~|~ ~|
 [B,,B,]>[B,,B,] [B,,B,]>[B,,B,] [B,,B,]>[B,,A,] [B,,G,]>[B,,G,] | [C,F,]2 [C,F,]2 F,2 z2 | %6
w: ~ ~ ~ ~ ~ ~ ~ ~|~ ~ ~|
 [F,A,]>[F,A,] [F,A,]>[F,A,] [F,B,]2 [F,B,]>[F,B,] | [F,A,]4 [B,,B,]2 z2 || %8
w: ~ ~ ~ ~ ~ ~ ~|~ ~|
 [B,,F,][B,,B,] [B,,B,]>[B,,B,] [B,,B,]2 [B,,B,]2 | [E,B,][E,E] [E,E]>[E,E] [E,E]2 [E,E]2 | %10
w: List- en for the whis- pers!|List- en for the whis- pers!|
 [F,C]>[F,C] [F,C]>[F,C] [F,B,]2 [F,C]>[F,A,] | [B,,B,]4 [B,,B,]2 z2 | B,>B, B,>B, B,>B, B,>B, | %13
w: |||
 [E,B,]2 [E,B,]2 [E,B,]2 z2 | [F,B,]>[F,B,] [F,B,]>[F,B,] [F,B,]2 [F,B,]>[F,B,] | %15
w: ||
 [F,A,]4 [B,,B,]2 z2 |] %16
w: |
V:4
 x8 | x4 F,2 x2 | x8 | x8 | x8 | x4 F,2 x2 | x8 | x8 || x8 | x8 | x8 | x8 | %12
 B,>B, B,>B, B,>B, B,>B, | x8 | x8 | x8 |] %16

